X:1
T:Title
%%score { ( 1 4 ) | ( 2 3 ) }
L:1/8
M:4/4
K:C
V:1 treble nm="Grand Piano"
V:4 treble 
V:2 bass 
V:3 bass 
V:1
 z4 z2[Q:1/4=96] [CE][DF] | [EG]2 [EG]>[FG] G2 A[FB] | [Ec]2 [Ec]>[EA] [EG]2 [EG][Ec] | %3
 B2 B>c d2 BG |[M:9/8] [Ec]2 [Ec]- [Ec]/[CE]/ [EG]2- [EG][CE][DF] | %5
[M:4/4] [EG]2 [EG]>[FG] G2 A[FB] | [Ec]2 [Ec]>[EA] [EG]3 [EG] | A2 cc [^Fc] [FA]2 [FA] | %8
[M:7/8] [^Fd]2 [Fd]>[DFc] [DGB]3 |[M:1/4] [B,FG][B,FG] |[M:4/4] .[CEc]2 [Ec]>[Fc] [Gc]2 [CE][DF] | %11
 [EG]2 [FA]2 [EG]2 [EG][EG] | B2 B>c d2 G2 | [Ec]>[EB] [Ec][EA] [EG]2 GG | e2 e2 d2 [GB][GB] | %15
[M:9/8] .c3 z3 z3 |[M:4/4] [FA]2 [Fc]2 [Ec]<[CEG] [CG][CA] |[M:7/8] z2[K:bass] [B,D]2 z z2 |] %18
V:2
 z4 z2 [C,G,][C,G,] | [C,C]2 [C,C]>[D,C] [E,C]2 [F,CF][D,G,] | %2
 [C,G,]2 [C,G,]>[C,C] [C,C]2 [C,C][C,G,] | [G,D]2 [G,D]>[G,E] [G,B,F]2 [G,F][G,F] | %4
[M:9/8][K:bass] [C,G,]2 [C,G,]- [C,G,]/[C,G,]/ [C,C]2- [C,C] [C,G,]2 | %5
[M:4/4] [C,C]2 [C,C]>[D,C] [E,C]2 [F,CF][D,G,] | [C,G,]2 [C,G,]>[C,C] [C,C]3 [C,C] | %7
 [F,CF]2 [F,A,F][F,A,F] [D,A,] [D,D]2 [D,D] |[M:7/8] [D,A,]2 [D,A,]>D, G,3 |[M:1/4] G,G, | %10
[M:4/4] z G, [C,G,]>[D,G,] [E,G,]2 [C,G,][C,G,] | [C,C]2 [C,C]2 [C,C]2 [C,C][C,C] | %12
 [G,DF]2 [G,DF]>[G,CF] [G,B,F]2 [G,DF]2 | [C,C]>[C,G,] [C,G,][C,C] [C,C]2[K:treble] [G,CE][G,CE] | %14
 [CG]2 [CG]2 [G,B,G]2[K:bass] [F,D][F,D] | %15
[M:9/8] [E,C][D,G,][C,G,C]- [C,G,C] [C,C]2- [C,C][C,C][C,C] | %16
[M:4/4] [F,C]2 [F,A,]2 [C,G,]<C, E,F, |[M:7/8] G,2 z F, C,3 |] %18
V:3
 x8 | x8 | x8 | x8 |[M:9/8][K:bass] x9 |[M:4/4] x8 | x8 | x8 |[M:7/8] x7 |[M:1/4] x2 | %10
[M:4/4] C,2 z2 z4 | x8 | x8 | x6[K:treble] x2 | x6[K:bass] x2 |[M:9/8] x9 |[M:4/4] x8 | %17
[M:7/8] z2 G,,2 z z2 |] %18
V:4
 x8 | x8 | x8 | x8 |[M:9/8] x9 |[M:4/4] x8 | x8 | x8 |[M:7/8] x7 |[M:1/4] x2 |[M:4/4] x8 | x8 | %12
 x8 | x8 | x8 |[M:9/8] GFE- E [EG]2- [EG][EG][EG] |[M:4/4] x8 |[M:7/8] [CE]2[K:bass] G, z [E,C]3 |] %18

